X: 9910
T: Lothian Lads
T: Lothian Scottish [incorrect title]
C:\251 George Meikle
B: George Meikle "Originally Mine" p.12
N: This tune had the incorrect title "Lothian Scottish". George sent me the correct version 
N: of the tune, and I inserted it here to encourage spread of the correct tune and title.
R: reel
Z: 2010 John Chambers <jc:trillian.mit.edu>
M: C|
L: 1/8
K: F
C2 |: "F"F2EF "Gm"G2FG | "A/F7"A2GA "Bb"B2AB | "F"c2c=B "Dm"cdcA | "Gm"B2G2 "C7"GBAG |
"F"F2EF "Gm"G2FG | "A/F7"A2GA "Bb"B2AB | "F"c2cB "C7"cdcB |1"F"A2F2 "C7"F2C2 :|2 "F"A2F2 "C7"F2AB ||
"F"c2=Bc "E/C7"d2c2 | "Dm"A2^GA "A/Dm"B2A2 | "Gm"G2^FG "B/G7"A2G2 | "C"E2^DE "E/C7"=D2C2 |
"F"c2=Bc "E/C7"d2c2 | "Dm"A2^GA "A/Dm"B2A2 | "Gm"G2^FG "E/C7"cBAG | "F"A2F2 "C7"FAB=B |
"F"c2=Bc "E/C7"dcBc | "Dm"A2^GA "A/Dm"BAGA | "Gm"G2^FG "B/G7"AGFG | "C"E2^DE "E/C7"=DEDC |
"F"c2=Bc "E/C7"dcBc | "Dm"A2^GA "A/Dm"BAGA | "Gm"G2^FG "E/C7"cBAG | "F"A2F2 "F"F4 |]
%%begintext align
The Lothian Scottish Dance Band played for many years of successful winter SCD holidays  organised
by  the late Mary Prentice.  At one of the earlier holidays in 1979, we were playing in Palma Nova
in Majorca and I composed this tune.  John Drewry had devised  a  new  dance  especially  for  the
holiday and presented it to Mary, for her to name. We were very honoured when Mary decided to name
the dance "Lothian Lads" after the band and hence the  name  of  the  original  tune.   As  it  is
dedicated  to  the  band,  the dance has been regularly played by us at dances all over the UK and
Europe.  Although not the first tune I composed, it was the first one to be used as  the  original
tune for a Scottish Country dance.
%%endtext

